Numix/32/status/weather-showers-scattered.svg

<?xml version="1.0" encoding="UTF-8" standalone="yes"?>
<svg xmlns="http://www.w3.org/2000/svg" xmlns:xlink="http://www.w3.org/1999/xlink" width="32px" height="32px" viewBox="0 0 24 24" version="1.1">
  <g id="surface1">
    <path style=" stroke:none;fill-rule:nonzero;fill:rgb(92.54902%,92.54902%,92.54902%);fill-opacity:1;" d="M 8.738281 5 C 8.5625 5 8.375 5.007812 8.1875 5.03125 C 5.15625 5.421875 5.25 8.023438 5.25 8.023438 C 4.007812 8.234375 3 9.3125 3 10.445312 C 3 11.578125 4.292969 12.582031 5.378906 12.875 C 6.023438 13.046875 6.871094 12.875 6.871094 12.875 C 7.253906 13.546875 8.519531 14 9.398438 14 C 10.835938 14 12.316406 13.523438 12.65625 12.875 C 12.65625 12.875 18.609375 13.351562 19.847656 12.875 C 21.648438 12.179688 21.085938 10.011719 19.890625 9.28125 C 18.691406 8.546875 17.125 9.058594 17.125 9.058594 C 17.125 9.058594 17.117188 7.566406 15.425781 6.851562 C 13.734375 6.140625 12.304688 7.71875 12.304688 7.71875 C 12.304688 7.71875 11.359375 5.015625 8.738281 5 Z M 8.738281 5 "/>
    <path style=" stroke:none;fill-rule:nonzero;fill:rgb(92.54902%,92.54902%,92.54902%);fill-opacity:1;" d="M 5.078125 17.855469 C 3.699219 17.46875 5.109375 14.855469 5.957031 14 C 6.363281 15.128906 6.453125 18.242188 5.078125 17.855469 Z M 5.078125 17.855469 "/>
    <path style=" stroke:none;fill-rule:nonzero;fill:rgb(92.54902%,92.54902%,92.54902%);fill-opacity:1;" d="M 8.296875 20.59375 C 6.730469 20.15625 8.335938 17.179688 9.296875 16.207031 C 9.761719 17.492188 9.867188 21.035156 8.296875 20.59375 Z M 8.296875 20.59375 "/>
    <path style=" stroke:none;fill-rule:nonzero;fill:rgb(92.54902%,92.54902%,92.54902%);fill-opacity:1;" d="M 12.53125 18.390625 C 11.125 17.996094 12.5625 15.328125 13.425781 14.460938 C 13.839844 15.609375 13.933594 18.785156 12.53125 18.390625 Z M 12.53125 18.390625 "/>
    <path style=" stroke:none;fill-rule:nonzero;fill:rgb(92.54902%,92.54902%,92.54902%);fill-opacity:1;" d="M 15.101562 21.210938 C 13.453125 20.75 15.140625 17.617188 16.152344 16.59375 C 16.640625 17.945312 16.75 21.671875 15.101562 21.210938 Z M 15.101562 21.210938 "/>
    <path style=" stroke:none;fill-rule:nonzero;fill:rgb(92.54902%,92.54902%,92.54902%);fill-opacity:1;" d="M 18.265625 18.167969 C 16.78125 17.75 18.304688 14.929688 19.214844 14.007812 C 19.65625 15.226562 19.753906 18.585938 18.265625 18.167969 Z M 18.265625 18.167969 "/>
  </g>
</svg>

<svg xmlns="http://www.w3.org/2000/svg" width="32" height="32" viewBox="0 0 24 24">
 <g>
  <path d="m 8.738 5 c -0.176 0 -0.363 0.008 -0.551 0.031 c -3.03 0.391 -2.938 2.992 -2.938 2.992 c -1.242 0.211 -2.25 1.289 -2.25 2.422 c 0 1.133 1.293 2.137 2.379 2.43 c 0.645 0.172 1.492 0 1.492 0 c 0.383 0.672 1.648 1.125 2.527 1.125 c 1.438 0 2.918 -0.477 3.258 -1.125 c 0 0 5.953 0.477 7.191 0 c 1.801 -0.695 1.238 -2.863 0.043 -3.594 c -1.199 -0.734 -2.766 -0.223 -2.766 -0.223 c 0 0 -0.008 -1.492 -1.699 -2.207 c -1.691 -0.711 -3.121 0.867 -3.121 0.867 c 0 0 -0.945 -2.703 -3.566 -2.719 m 0 0" style="fill:#ececec;fill-opacity:1;stroke:none;fill-rule:nonzero"/>
  <path d="m 5.078 17.855 c -1.379 -0.387 0.031 -3 0.879 -3.855 c 0.406 1.129 0.496 4.242 -0.879 3.855 m 0 0" style="fill:#ececec;fill-opacity:1;stroke:none;fill-rule:nonzero"/>
  <path d="m 8.297 20.594 c -1.566 -0.438 0.039 -3.414 1 -4.387 c 0.465 1.285 0.57 4.828 -1 4.387 m 0 0" style="fill:#ececec;fill-opacity:1;stroke:none;fill-rule:nonzero"/>
  <path d="m 12.531 18.391 c -1.406 -0.395 0.031 -3.063 0.895 -3.93 c 0.414 1.148 0.508 4.324 -0.895 3.93 m 0 0" style="fill:#ececec;fill-opacity:1;stroke:none;fill-rule:nonzero"/>
  <path d="m 15.1 21.21 c -1.648 -0.461 0.039 -3.594 1.051 -4.617 c 0.488 1.352 0.598 5.078 -1.051 4.617 m 0 0" style="fill:#ececec;fill-opacity:1;stroke:none;fill-rule:nonzero"/>
  <path d="m 18.266 18.17 c -1.484 -0.418 0.039 -3.238 0.949 -4.16 c 0.441 1.219 0.539 4.578 -0.949 4.16 m 0 0" style="fill:#ececec;fill-opacity:1;stroke:none;fill-rule:nonzero"/>
 </g>
</svg>
